data/styles/clear/style-night/symbols/car_shop-m.svg

<svg height="24" viewBox="0 0 24 24" width="24"><g fill="none" fill-rule="evenodd"><circle cx="12" cy="12" fill="#fff" opacity=".4" r="12"/><circle cx="12" cy="12" fill="#4e3552" r="11"/><path d="m16.9062 6.83538889c-.1638-.49988889-.6216-.83538889-1.1388-.83538889h-7.5348c-.5172 0-.975.3355-1.1388.83538889l-1.0938 3.34338891v6.2101111c0 .3373333.2688.6111111.6.6111111h1.2c.3312 0 .6-.2737778.6-.6111111v-1.2222222h7.2v1.2222222c0 .3373333.2688.6111111.6.6111111h1.2c.3312 0 .6-.2737778.6-.6111111v-6.2101111zm-8.8062 6.49794441c-.4968 0-.9-.4106666-.9-.9166666s.4032-.9166667.9-.9166667.9.4106667.9.9166667-.4032.9166666-.9.9166666zm7.8 0c-.4968 0-.9-.4106666-.9-.9166666s.4032-.9166667.9-.9166667.9.4106667.9.9166667-.4032.9166666-.9.9166666zm-8.6676-3.0555555 1.0002-3.05555558h7.5354l1.0002 3.05555558z" fill="#fff" fill-rule="nonzero" opacity=".6"/></g></svg>

<svg width="24" height="24" viewBox="0 0 24 24">
  <g fill="none" fill-rule="evenodd">
    <circle cx="12" cy="12" r="12" fill="#FFF" opacity=".4"/>
    <circle cx="12" cy="12" r="11" fill="#4E3551"/>
    <path fill="#FFF" fill-rule="nonzero" d="M16.9062,6.83538889 C16.7424,6.3355 16.2846,6 15.7674,6 L8.2326,6 C7.7154,6 7.2576,6.3355 7.0938,6.83538889 L6,10.1787778 L6,16.3888889 C6,16.7262222 6.2688,17 6.6,17 L7.8,17 C8.1312,17 8.4,16.7262222 8.4,16.3888889 L8.4,15.1666667 L15.6,15.1666667 L15.6,16.3888889 C15.6,16.7262222 15.8688,17 16.2,17 L17.4,17 C17.7312,17 18,16.7262222 18,16.3888889 L18,10.1787778 L16.9062,6.83538889 Z M8.1,13.3333333 C7.6032,13.3333333 7.2,12.9226667 7.2,12.4166667 C7.2,11.9106667 7.6032,11.5 8.1,11.5 C8.5968,11.5 9,11.9106667 9,12.4166667 C9,12.9226667 8.5968,13.3333333 8.1,13.3333333 Z M15.9,13.3333333 C15.4032,13.3333333 15,12.9226667 15,12.4166667 C15,11.9106667 15.4032,11.5 15.9,11.5 C16.3968,11.5 16.8,11.9106667 16.8,12.4166667 C16.8,12.9226667 16.3968,13.3333333 15.9,13.3333333 Z M7.2324,10.2777778 L8.2326,7.22222222 L15.768,7.22222222 L16.7682,10.2777778 L7.2324,10.2777778 Z" opacity=".6"/>
  </g>
</svg>
